Adwaita++-Dark/actions/16/find-location.svg

<svg height="16" width="16" xmlns="http://www.w3.org/2000/svg">
  <path d="m7 1v2.09c-1.95.4-3.51 1.96-3.91 3.91h-2.09v2h2.09c.4 1.95 1.96 3.51 3.91 3.91v2.09h2v-2.09c1.95-.4 3.51-1.96 3.91-3.91h2.09v-2h-2.09c-.4-1.95-1.96-3.51-3.91-3.91v-2.09zm1 5c1.1 0 2 .9 2 2s-.9 2-2 2-2-.9-2-2 .9-2 2-2z" fill="#e6ddff"/>
</svg>

<svg xmlns="http://www.w3.org/2000/svg" width="16" height="16" version="1.1">
 <path style="fill:#E6DDFF" d="M 7,1 V 3.09 C 5.05,3.49 3.49,5.05 3.09,7 H 1 V 9 H 3.09 C 3.49,10.95 5.05,12.51 7,12.91 V 15 H 9 V 12.91 C 10.95,12.51 12.51,10.95 12.91,9 H 15 V 7 H 12.91 C 12.51,5.05 10.95,3.49 9,3.09 V 1 Z M 8,6 C 9.1,6 10,6.9 10,8 10,9.1 9.1,10 8,10 6.9,10 6,9.1 6,8 6,6.9 6.9,6 8,6 Z"/>
</svg>
